assets/features/channel/east-asia/hana-bank.svg

<svg width="80" height="80" viewBox="0 0 80 80" fill="none" xmlns="http://www.w3.org/2000/svg">
<rect x="0.5" y="0.5" width="79" height="79" rx="7.5" fill="white"/>
<rect x="0.5" y="0.5" width="79" height="79" rx="7.5" stroke="#EEEEEE"/>
<path d="M46.18 43.5596C46.0869 43.0044 45.9378 42.467 45.7133 41.9696C45.0108 40.4518 44.0309 39.1795 42.5683 38.3211C40.2862 36.9926 37.5309 36.9991 35.2745 38.3709C34.2529 38.9869 33.4125 39.8742 32.8721 40.9427C32.6892 41.3037 32.5385 41.6824 32.4182 42.0707C31.8232 43.9607 31.8441 46.5021 32.9154 48.2285C33.265 48.79 33.7718 49.2745 34.386 49.5104C35.0066 49.7494 35.7396 49.7222 36.2977 49.3644C37.0145 48.9007 37.1428 48.0151 37.0081 47.2289C36.8397 46.2245 36.7098 45.2346 37.0803 44.2511C37.1974 43.9382 37.3658 43.635 37.6063 43.4039C37.7539 43.2627 37.9287 43.1488 38.1115 43.059C38.5012 42.8681 38.9439 42.7846 39.3721 42.8536C40.1194 42.9723 40.7304 43.5531 41.0624 44.2334C41.3912 44.9137 41.4826 45.6822 41.5195 46.4411C41.675 49.7334 40.8892 53.1444 40.0504 56.3067C39.9638 56.634 39.874 56.9581 39.7826 57.2838C39.712 57.5341 39.5837 57.8534 39.7425 58.0957C39.8115 58.1984 39.9189 58.2738 40.0344 58.3203C40.5235 58.5176 40.9229 58.2176 41.25 57.8871C43.181 55.9441 44.4158 53.438 45.2626 50.8613C45.5786 49.8971 45.8496 48.9216 46.0324 47.922C46.2826 46.5582 46.4237 44.9971 46.18 43.5596Z" fill="#009591"/>
<path d="M60 28.3359C60 27.8417 59.5622 27.516 59.0939 27.5321C58.616 27.5481 58.1733 27.7936 57.7355 27.9604C49.2437 31.1886 39.6677 31.8014 30.7188 30.5131C29.1888 30.2917 27.6364 29.982 26.0968 29.743C25.1361 29.5938 24.1851 29.3723 23.2132 29.3034C22.3841 29.2376 21.3529 29.2071 20.6825 29.7847C19.8004 30.5468 19.863 31.9908 20.3634 32.947C20.9648 34.0942 22.0168 34.9525 23.1138 35.6071C24.1787 36.2409 25.4472 36.918 26.7142 36.8377C30.135 36.6179 33.5462 36.2858 36.9445 35.8462C42.7405 35.0937 48.8187 34.383 54.2618 32.132C56.042 31.3971 57.8013 30.481 59.3248 29.2953C59.6023 29.0835 60 28.7386 60 28.3359Z" fill="#009591"/>
<path d="M35.6479 25.424C35.6479 27.2706 37.1442 28.7676 38.9886 28.7676C40.8329 28.7676 42.3292 27.2706 42.3292 25.424C42.3292 25.1512 42.265 24.8736 42.1495 24.6249C41.8609 24.0169 41.5385 23.7233 41.5722 22.9932C41.6139 22.0145 40.3582 22.0001 39.6798 22.0001C38.942 22.0001 38.1562 22.1044 37.4891 22.4381C36.9582 22.7061 36.5011 23.1184 36.1788 23.6158C35.8468 24.1308 35.6624 24.7357 35.6479 25.3485V25.424Z" fill="#ED1651"/>
</svg>

<svg xmlns="http://www.w3.org/2000/svg" width="80" height="80" fill="none" viewBox="0 0 80 80"><rect width="79" height="79" x=".5" y=".5" fill="#fff" rx="7.5"/><rect width="79" height="79" x=".5" y=".5" stroke="#eee" rx="7.5"/><path fill="#009591" d="M46.18 43.56a6.5 6.5 0 0 0-.467-1.59c-.702-1.518-1.682-2.79-3.145-3.649-2.282-1.328-5.037-1.322-7.293.05a6.37 6.37 0 0 0-2.403 2.572c-.183.36-.334.74-.454 1.128-.595 1.89-.574 4.431.497 6.157.35.562.857 1.047 1.471 1.282.62.24 1.354.212 1.912-.146.716-.463.845-1.349.71-2.135-.168-1.005-.298-1.994.072-2.978.117-.313.286-.616.526-.847.148-.141.323-.255.505-.345a2.1 2.1 0 0 1 1.261-.205c.747.118 1.358.7 1.69 1.38.33.68.42 1.448.458 2.207.155 3.292-.63 6.703-1.47 9.866q-.13.49-.267.977c-.071.25-.2.57-.04.812a.63.63 0 0 0 .291.224c.49.198.889-.102 1.216-.433 1.931-1.943 3.166-4.449 4.013-7.026.316-.964.587-1.94.77-2.939.25-1.364.39-2.925.147-4.362M60 28.336c0-.494-.438-.82-.906-.804-.478.016-.92.262-1.358.428-8.492 3.229-18.068 3.841-27.017 2.553-1.53-.221-3.083-.531-4.622-.77-.96-.15-1.912-.37-2.884-.44-.829-.065-1.86-.096-2.53.482-.883.762-.82 2.206-.32 3.162.602 1.147 1.654 2.005 2.75 2.66 1.066.634 2.334 1.311 3.601 1.23q5.132-.33 10.23-.99c5.796-.753 11.875-1.464 17.318-3.715 1.78-.735 3.54-1.651 5.063-2.837.277-.212.675-.556.675-.96"/><path fill="#ed1651" d="M35.648 25.424a3.343 3.343 0 0 0 3.34 3.344 3.343 3.343 0 0 0 3.341-3.344c0-.273-.064-.55-.18-.8-.288-.607-.61-.9-.577-1.63.042-.98-1.214-.994-1.892-.994-.738 0-1.524.104-2.19.438-.532.268-.989.68-1.311 1.178a3.36 3.36 0 0 0-.531 1.733z"/></svg>
